X:1
T:Title
%%score { ( 1 3 4 ) | ( 2 5 ) }
L:1/8
Q:1/4=104
M:4/4
K:C
V:1 treble nm="Grand Piano"
V:3 treble 
V:4 treble 
V:2 bass 
V:5 bass 
V:1
 [Ec]2 [Ec]2 [Ec]3 [EG] | [FA]>[Ac] [GB]>[FA] [EG]2 [EG]2 | E2 E2 E3 [EG] | %3
w: Charles~Gabriel * * *|||
 [DF]>[CE] [DF]>[B,G] [CE]4 | [Ec]2 [Ec]2 [Ec]3 [EG] | [FA]>[Ac] [GB]>[FA] [EG]2 [EG]2 | %6
w: |||
 E2 E2 D>D G>B | A2 A2 [B,G]4 | [Ge]4 [Ge]4 | z2 .[Fd]2 z4 | z2 B2 z4 | %11
w: |||||
 [CEA]2 [CEc]2 [CEc]2 [CEG]2 | [Ge]4 [Ge]4 |[M:2/4] z2 .[Fd]2 | [CEG]2 [CG]2 | %15
w: ||||
[M:4/4] G>A B>c B2 [B,_EB]2 | E4 (3FGA (3Bcd | [Ge]4 [Ge]4 | z2 .[Fd]2 z4 | z2 B2 z4 | %20
w: |||||
 [CEA]2 [CEc]2 [CEc]2 [CEG]2 | [Ge]4 [Ge]4 |[M:2/4] z2 .[Fd]2 | [CGB]2 [C_EA]2 |[M:4/4] z4 z2 d2 | %25
w: |||||
 [Ec]6 z2 |] %26
w: |
V:2
 [C,G,]2 [C,G,]2 [C,G,]3 [C,C] | [F,C]>[F,C] [F,C]>[F,C] [C,C]2 [C,C]2 | %2
 [C,G,C]2 [C,G,C]2 [C,G,C]3 [C,G,] | [G,,G,]>[G,,G,] [G,,G,]>[G,,G,] [C,G,]4 | %4
 [C,G,]2 [C,G,]2 [C,G,]3 [C,C] | [F,C]>[F,C] [F,C]>[F,C] [C,C]2 [C,C]2 | %6
 [C,G,C]2 [^C,G,_B,]2 [D,G,=B,]>[D,G,B,] [D,G,B,]>[D,G,D] | [D,^F,C]2 [D,F,C]2 [G,,G,]4 | %8
 [C,C]2 G,,2 [C,C]2 z G | [C,C]2 z E C,2 E,2 | z z/ A/ [G,,G,]2 [D,G,]2 G,,2 | %11
 z z/[K:treble] B/ z z/ d/[K:bass] C,2 E,G, | [C,C]2 G,,2 [C,C]2 z G |[M:2/4] [C,C]2 z E | %14
 C,2 E,2 |[M:4/4] G,>A, B,>C B,2 B,,2 | E,4 z4 | [C,C]2 G,,2 [C,C]2 z G | [C,C]2 z E C,2 E,2 | %19
 z z/ A/ [G,,G,]2 [D,G,]2 G,,2 | z z/[K:treble] B/ z z/ d/[K:bass] C,2 E,G, | %21
 [C,C]2 G,,2 [C,C]2 z G |[M:2/4] [C,C]2 z E | F,2 ^F,2 | %24
[M:4/4] G,>G, E,>[C,C] [G,,B,F]2 .[G,,B,F]2 | [C,G,]6 z2 |] %26
V:3
 x8 | x8 | x8 | x8 | x8 | x8 | x8 | x8 | z2 C2 z2 z e | [Ge]2 C-[Cc] [CEG]2 [CG]2 | %10
 [B,FG]2 F->[Fc] [FB]2 [B,FA]2 | x8 | z2 C2 z2 z e |[M:2/4] [Ge]2 C-[Cc] | x4 |[M:4/4] x8 | x8 | %17
 z2 C2 z2 z e | [Ge]2 C-[Cc] [CEG]2 [CG]2 | [B,FG]2 F->[Fc] [FB]2 [B,FA]2 | x8 | z2 C2 z2 z e | %22
[M:2/4] [Ge]2 C-[Cc] | x4 |[M:4/4] [CEG]>[CEG] [CGc]>[Ge] d2 z G, | x8 |] %26
V:4
 x8 | x8 | x8 | x8 | x8 | x8 | x8 | x8 | z4 z2 C2 | x8 | x8 | x8 | z4 z2 C2 |[M:2/4] x4 | x4 | %15
[M:4/4] x8 | x8 | z4 z2 C2 | x8 | x8 | x8 | z4 z2 C2 |[M:2/4] x4 | x4 |[M:4/4] x8 | x8 |] %26
V:5
 x8 | x8 | x8 | x8 | x8 | x8 | x8 | x8 | z4 z2 G,,2 | z2 G,,2 z4 | D,2 z2 z4 | %11
 D,2[K:treble] G,,2[K:bass] z4 | z4 z2 G,,2 |[M:2/4] z2 G,,2 | x4 |[M:4/4] x8 | x8 | z4 z2 G,,2 | %18
 z2 G,,2 z4 | D,2 z2 z4 | D,2[K:treble] G,,2[K:bass] z4 | z4 z2 G,,2 |[M:2/4] z2 G,,2 | x4 | %24
[M:4/4] x8 | x8 |] %26

